X:1
T:Le mal que sent
T:Etienne Du Tertre
T:Source : Livre XXV de 28 chansons nouvelles à 4 parties---Paris---P.Attaingnant---1547. Editor : André Vierendeels (29/07/18) Notes : Original clefs : C1, C3, C3, F4 Original note values have been hzlved Editorial accidentals above the staff 
T:Le mal que sent
T:©
T:©
T:©
T:©
T:©
C:Etienne Du Tertre
Z:©
%%score [ 1 [ 2 3 ] 4 ]
L:1/8
Q:1/4=120
M:2/2
K:F
V:1 treble nm="Soprano" snm="S"
V:2 treble-8 nm="Tenor 1" snm="T 1"
V:3 treble-8 nm="Tenor 2" snm="T 2"
V:4 bass nm="Bass" snm="B"
V:1
 G8 | F2 A2 GFGA | B2 B2 A2 F2 | G2 B3 A A2- | A2 G2 A4 | z2 F2 G2 B2 | A3 F G2 A2 | B2 G2 F2 F2 | %8
w: Le|mal que sent _ _ _|_ u- ne'a- my-|e'of- fen- * sé-|* * e,|par le mal-|heur d'ung le- ger|chan- ge- ment, d'ung|
w: Clos|au pro- fond _ _ _|_ de sa tri-|ste pen- * sé-|* * e,|ce- le le|plus du pe- ni-|ble tour- nent, du|
 G2 B4 A2- |"^#" AG G4 F2 |1[M:2/4] G4 :|2 G4 ||[M:2/2] z2 G2 G2 G2 | A2 F2 G2 A2 | B2 B2 A4 | %15
w: le- ger chan-|* * * ge-|ment,|ment,|car où l'e-|spoir de doulx con-|ten- te- ment,|
w: pe- * ni-|* * ble tour-||||||
 z2 G2 F2 A2 | GF FE/D/ E4 | D2 F2 G2 B2 | AGAB c2 A2 | d3 c B2 A2 | G8 |: z4 G4- | G4 F2 A2 | %23
w: de doulx con-|ten- * * * * te-|ment, se con- ver-|tist _ _ _ _ en|dueil et des- plai-|sir,|rien|_ n'y sert|
w: ||||||||
 G2 A2 B4- | B2 A2 G2 G2 | F4 z2 G2 | A2 G2 F2 D2 | FEFG A2 B2 | A2 G4 F2 | G8 :| %30
w: fors cri- er|_ pi- teu- se-|ment, O|com- bien est mal-|heu- * * * * reux|le de- *|sir.|
w: |||||||
V:2
 d4 e2 c2 | d8 | z2 d2 f2 d2 | e2 f2 f4 |"^b" e4 d2 d2 | B3 A c2 F2 | f2 f2 e2 e2 | d4 z2 d2 | %8
w: Le mal que|sent|u- ne'a- my-|e'of- fen- sé-|* e, par|le mal- heur d'ung|le- ger chan- ge-|ment, d'ung|
w: Clos au pro-|fond|de sa tri-|ste pesé- *|* e, ce-|le le plus du|pe- ni- ble tour-|ment, du|
 e2 f2 d2 f2 |"^b" f2 e2 d2 d2 |1[M:2/4] B4 :|2 B2 d2 ||[M:2/2] d2 d2 e2 e2 | c2 d2 G2 c2 | %14
w: le- ger chan- ge-|ment, chan- * ge-|ment,|ment, car|où l'e- spoir de|doulx con- ten- *|
w: pe- * * *|ni- * ble tour-|||||
 Bcde f2 f2 | B2 c2 defd | ed d4 c2 | d4 z2 d2 | fefg a2 f2 | d2 f2 g2 f2 | d2 d2 e4 |: z4 d4 | %22
w: * * * * * te-|ment, de soulx _ _ _|con- * ten- te-|ment, se|con- * * * * ver-|tist en dueil et|des- plai- sir,|rien|
w: ||||||||
 e2 c2 d2 f2 | d2 z f g3 f | ed d4 c2 | d4 z2 d2 | f2 d2 d4- | d2 d2 f2 f2 |"^b" e2 c2 d4 | B8 :| %30
w: n'y sert fors cri-|er pi- teu- *|* * * se-|ment, O|com- bien est|_ mal- heu- reux|le de- *|sir.|
w: ||||||||
V:3
 G8 | A4 B4 | G4 z2 A2 | c2 d2 c2 A2 | B4 A4 | z2 d2 e2 d2 | c2 d2 G2 c2 | B2 B2 A4 | z2 d2 d2 d2 | %9
w: Le|mal que|sent u-|ne'a- my- e'of- fen-|sé e,|par le mal-|heur d'ung le- ger|chan- ge- ment,|d'ung le- ger|
w: Clos|au pro-|fond de|sa tri- ste pen-|sé- e,|ce- le le|plus du pe- ni-|ble tour- ment,|du pe- ni-|
 cBBA/G/ A4 |1[M:2/4] G4 :|2 G4 ||[M:2/2] z2 B2 c2 c2 | A4 z2 A2 | d2 B2 c2 d2 | G2 G2 A2 F2 | %16
w: chan- * * * * ge-|ment,|ment,|car où l'e-|spoir de|doulx con- ten- te-|ment, de doulx con-|
w: ble _ _ _ _ tour-|||||||
 G2 B2 A4 | z2 A2 B4 | c4 A2 c2 | B2 A2 G2 c2- |"^-natural" c2 B2 c4 |: z4 G4 | G2 G2 A2 F2 | %23
w: ten- te- ment,|se con-|ver- tist en|dueil et des- plai-|* * sir,|rien|n'y sert fors cri-|
w: |||||||
 B2 d3 c BA | G2 A2 B2 G2 | A4 z2 B2 | c2 B2 A4- | A2 A2 d2 d2 | cB BA/G/ A4 | G8 :| %30
w: er pi- * * *|teu- * * se-|ment, O|com- bien est|_ mal- heu- reux|le _ _ _ _ de-|sir.|
w: |||||||
V:4
 G,4 C,2 E,2 | D,4 z2 G,,2 | G,,A,,B,,C, D,2 D,2 | C,2 B,,2 F,4 | G,4 D,2 D,2 | E,2 D,2 C,2 B,,2 | %6
w: Le mal que|sent u-|ne'a- * * * * my-|e'of- fen- sé-|* e, par|le mal- heur d'ung|
w: Clos au pro-|fond de|sa _ _ _ _ tri-|ste pen- sé-|* e, ce-|le le plus du|
 F,2 D,2 E,2 F,2 | G,2 G,,2 D,2 D,2 | C,2 B,,3 C,D,E, | F,2 G,2 D,4 |1[M:2/4] G,,4 :|2 G,,2 G,2 || %12
w: le- ger chan- ge-|ment, d'ung le- ger|chan- * * * *|* * ge-|ment,|ment, car|
w: pe- ni- ble tour-|ment, du pe- ni-|ble tour- * * *||||
[M:2/2] G,2 G,2 C,2 C,2 | F,2 D,2 E,2 F,2 | G,2 G,2 F,2 D,2 |"^b""^b" E,2 E,2 D,4 | z8 | %17
w: où l'e- spoir de|doulx con- ten- te|ment, de doulx con-|ten te- ment,||
w: |||||
 D,4 G,2 G,2 | F,8 | z2 D,2 _E,2 F,2 | G,2 G,2 C,4 |: z4 G,4 | C,2 E,2 D,2 D,2 | G,2 z D, G,4- | %24
w: se con- ver-|tist|en dueil et|des- plai- sir,|rien|n'y sert fors cri-|er pi- teu-|
w: |||||||
"^b""^b" G,2 F,2 E,2 E,2 | D,4 z2 G,2 | F,2 G,2 D,2 z2 | z2 D,2 D,2 B,,2 |"^b" C,2 E,2 D,4 | %29
w: * * * se-|ment, O|com- bien est|mal- heu- reux|le de- *|
w: |||||
 G,,8 :| %30
w: sir.|
w: |

